X: 2
T: Bang Your Frog On The Sofa
C: Will Harmon
Z: RobSheldrick
S: https://thesession.org/tunes/371#setting52113
R: reel
M: 4/4
L: 1/8
K: Ddor
|:DFAd (Bc)c~B|AFDF G2GE|D2DE {E}F2ED|FAc(A2c)Gc|
Adde f~g2e|decA GECE|DFEA FAG_B|1 AGFE EDCE:|2 A2DA defg||
a2 af d3d|dfaf gage|ce (3eee eggf|ede~(g g)ece|
eaaf d3d|defg a2ae|fedc _BGGB|A2^ce defg|
a2 af d3d|dfaf gage|ceeg gecd|ede~(g g)ece|
af f/f/f fgge|fedf eAA(f|f)edc _BGGB|A2^ce eddA|
|:DFA(c c)AGc|AFDF G3E|D2ED EFFA|{d}cA{d}c(A2c)Gc|
Adde f~a2f|dfcA GECE|D2EA FAG_B|1 AGFE EDCE:|2 A2DA defg||

